!!!COM:	Anonymous
!!!OTL:	O beate Sebastiane
!!!AGN:	Motet
!!!SCT:	Ano2002
!!!SCA:	Ano2002
!!!SMS:	Trent 90
!!!folio:	364v
!!!voices:	3
**kern	**kern	**kern
*staff3	*staff2	*staff1
*Ivox	*Ivox	*Ivox
*I"Contra	*I"Tenor	*I"Discantus
*I'C	*I'T	*I'D
*>[A,B]	*>[A,B]	*>[A,B]
*>A	*>A	*>A
*clefGv2	*clefGv2	*clefG2
*k[]	*k[b-]	*k[b-]
*M3/1	*M3/1	*M3/1
*met(O)	*met(O)	*met(O)
=1-	=1-	=1-
!!section: O beate Sebastiane
!!!OMD: O beate Sebastiane
1r	1r	1r
1r	1r	1r
1c	1c	1cc
=2	=2	=2
0c	1.c	1.cc
.	2d	2b-
1c	1e	1g
=3	=3	=3
[0.F	0f	2a
.	.	2b-
.	.	1.cc
.	[1c	.
.	.	2a
=4	=4	=4
1F]	1c]	1a
1D	0d	2b-
.	.	2.a
1F	.	.
.	.	4g
.	.	2f
=5	=5	=5
1C	1c	2e
.	.	2f
1r	2B-	2.g
.	1G	.
.	.	4f
1G	.	2e
.	2B-	2d
=6	=6	=6
1c	2A	1c
.	1c	.
2A	.	2d
2F	2A	2.f
1B-i	1G	.
.	.	4e
.	.	2e
=7	=7	=7
1.c	0F	1f
.	.	1r
1A	.	.
.	1F	1a
2F	.	.
=8	=8	=8
1F	1A	1cc
2G	1G	2b-
2B-i	.	1dd
1A	1F	.
.	.	2cc
=9	=9	=9
1F	2r	1a
.	2A	.
1E-	1G	2r
.	.	2b-
1F	2F	1a
.	[2c	.
=10	=10	=10
2C	2c]	1g
2E	2G	.
1D	2A	2f
.	2B-	2f
2C	[1c	1e
2E	.	.
=11	=11	=11
2F	1c]	2r
2.A	.	2c
.	2r	2d
4G	.	.
4F	2c	2e
4E	.	.
1D	2d	1f
.	2f	.
=12	=12	=12
*	*	*k[]
2E	2e	1c
2F	2c	.
1G	1B-	2r
.	.	2g
[1C	2c	2a
.	2G	2b
=13	=13	=13
1C]	2A	1cc
.	2.c	.
1E	.	1g
.	4B-	.
.	4A	.
.	4G	.
1F	1F	2r
.	.	2a
=14	=14	=14
2E	2r	2g
2C	2c	2e
2D	1f	1d
2F	.	.
!LO:N:vis=1	!LO:N:vis=1	!LO:N:vis=1
1C;	1e;	1c;
!!LO:LB:i:g=z
=15||	=15||	=15||
*>B	*>B	*>B
*clefGv2	*clefGv2	*clefG2
*k[]	*k[b-]	*k[]
*M3/1	*M3/1	*M3/1
*met(O)	*met(O)	*met(O)
!!section: Ad dominum Jesum Christum
!!!OMD: Ad dominum Jesum Christum
1C	0.r	1cc
2F	.	1cc
2A	.	.
1G	.	1b
=16	=16	=16
1F	1f	1a
1F	1f	2r
.	.	1dd
2A	1e	.
2c	.	2cc
=17	=17	=17
1G	2d	1b
.	1g	.
2r	.	1a
2D	2f	.
2E	1e	2g
2C	.	[2cc
=18	=18	=18
1G	1d	2cc]
.	.	2b
2r	1c	2a
2C	.	2g
2D	2r	2.f
[2F	[2d	.
.	.	4g
=19	=19	=19
2F]	2d]	4a
.	.	4b
2C	2c	2.cc
2r	1A	.
.	.	4b
2F	.	1a
1G	1B-	.
.	.	2g
=20	=20	=20
2D	0A	1a
1F	.	.
.	.	1r
1c	.	.
.	2r	1cc
2A	2F	.
=21	=21	=21
2G	1G	1b-i
2B-	.	.
[0F	2A	1cc
.	1F	.
.	.	1a
.	[2c	.
=22	=22	=22
1F]	2c]	2r
.	2A	2cc
2r	1G	1b-i
2A	.	.
1F	2A	1cc
.	[2F	.
=23	=23	=23
1.c	2F]	1a
.	1A	.
.	.	1f
1d	1B-	.
.	.	2g
2e	2G	2b-i
=24	=24	=24
*	*	*k[b-]
2f	2F	1a
2e	2.c	.
2c	.	2g
.	4B-	.
1c	2A	1f
.	1G	.
2B	.	2e
=25	=25	=25
2c	0F	1f
2A	.	.
2F	.	1c
2.A	.	.
.	2r	1c
4G	.	.
4F	2c	.
4E	.	.
=26	=26	=26
1D	2d	1f
.	2f	.
2E	2e	1g
2F	2c	.
1G	1B-	2r
.	.	2g
=27	=27	=27
0C	2c	2a
.	2G	2b-
.	2A	1cc
.	2.c	.
1E	.	1g
.	4B-	.
.	4A	.
.	4G	.
=28	=28	=28
1F	1F	2r
.	.	2a
2E	2r	2g
2C	1c	2e
2r	.	2.d
2G	2B-	.
.	.	4e
=29	=29	=29
2A	2A	4f
.	.	4g
0c	2F	2.a
.	2E	.
.	.	4g
.	2F	2.f
.	1G	.
.	.	4e
2B	.	4e
.	.	4d
=30	=30	=30
0cl	0Fl	0fl
==	==	==
*-	*-	*-
!!!RDF**kern: l=long note in original notation
!!!RDF**kern: i=editorial accidental
!!!ENC:	Jesse Rodin 8/14/2013
!!!END:	2013/08/14/
!!!EED:	Jesse Rodin
!!!EEV:	2013/08/14/
!!!ONB:	Translated from MusicXML and edited on 2013/08/14/ by Craig Sapp
!!muse2ps: C^@{COM}\n@{SMS}, @{folio}^i2I150v110,110,150Q16
